fs/chart_multiple_20_regular.svg

<svg viewBox="0 0 20 20" fill="none" xmlns="http://www.w3.org/2000/svg" height="1em" width="1em">
  <path d="M3 9.5C3 12.9216 5.64378 15.7257 9 15.9811V16.9836C5.09098 16.7263 2 13.4741 2 9.5C2 5.35786 5.35786 2 9.5 2C13.4741 2 16.7263 5.09102 16.9836 9.00007C16.2502 9.00595 15.6108 9.40661 15.2675 10H10.5C9.67157 10 9 9.32843 9 8.5V3.01894C5.64378 3.27426 3 6.07838 3 9.5ZM15.9811 9C15.7383 5.8088 13.1912 3.2617 10 3.01894V8.5C10 8.77614 10.2239 9 10.5 9H15.9811ZM16 11C16 10.4477 16.4477 10 17 10C17.5523 10 18 10.4477 18 11V18C18 18.5523 17.5523 19 17 19C16.4477 19 16 18.5523 16 18V11ZM10 15C10 14.4477 10.4477 14 11 14C11.5523 14 12 14.4477 12 15V18C12 18.5523 11.5523 19 11 19C10.4477 19 10 18.5523 10 18V15ZM13 13C13 12.4477 13.4477 12 14 12C14.5523 12 15 12.4477 15 13V18C15 18.5523 14.5523 19 14 19C13.4477 19 13 18.5523 13 18V13Z" fill="#212121"/>
</svg>

<svg viewBox="0 0 20 20" fill="none" xmlns="http://www.w3.org/2000/svg" height="1em" width="1em">
  <path d="M3 9.5a6.5 6.5 0 0 0 6 6.481v1.003A7.5 7.5 0 1 1 16.984 9a2 2 0 0 0-1.717 1H10.5A1.5 1.5 0 0 1 9 8.5V3.019A6.5 6.5 0 0 0 3 9.5ZM15.981 9A6.501 6.501 0 0 0 10 3.019V8.5a.5.5 0 0 0 .5.5h5.481ZM16 11a1 1 0 1 1 2 0v7a1 1 0 1 1-2 0v-7Zm-6 4a1 1 0 1 1 2 0v3a1 1 0 1 1-2 0v-3Zm3-2a1 1 0 1 1 2 0v5a1 1 0 1 1-2 0v-5Z" fill="#212121"/>
</svg>
